.repo_tools/.repo_tmpl/logo1.svg

<svg viewBox="0 0 500 500" xmlns="http://www.w3.org/2000/svg">
  <path
    d="M175.97 262.24H81.78v-25.63l23-4.84V79.72l-23-4.98V48.96h93.61c19.04 0 35.84 4.47 50.39 13.4 14.55 8.94 25.9 21.29 34.05 37.06 8.16 15.77 12.24 33.87 12.24 54.28v3.95c0 20.21-4.03 38.21-12.09 53.98-8.05 15.77-19.31 28.15-33.76 37.13-14.45 8.99-31.2 13.48-50.25 13.48zM147.55 81.77v147.8h26.23c11.81 0 21.82-3.1 30.02-9.3 8.21-6.2 14.48-14.72 18.83-25.56 4.35-10.84 6.52-23.19 6.52-37.06v-4.1c0-14.07-2.17-26.49-6.52-37.28-4.35-10.79-10.62-19.24-18.83-25.34-8.2-6.11-18.21-9.16-30.02-9.16h-26.23z"
    style="white-space:pre" />
  <path
    d="M170.12 457.84H81.79v-25.63l22.71-4.4V274.73l-22.71-4.39v-25.78h66.07l92.87 147.95.88-.15V274.73l-27.25-4.39v-25.78h88.33v25.78l-22.85 4.39v183.11h-41.31l-94.92-146.48-.88.14v116.31l27.39 4.4v25.63z"
    style="white-space:pre" />
  <path
    d="M384.01 457.83H215.26V432.2l22.71-4.4V274.72l-22.71-4.39v-25.78h165.53v57.57h-32.81l-1.91-24.61h-65.33v53.61h72.22v32.96h-72.22v60.94h68.85l1.9-25.49h32.52v58.3z"
    style="white-space:pre" /></svg>

<?xml version="1.0" encoding="utf-8"?>
<svg viewBox="0 0 500 500" xmlns="http://www.w3.org/2000/svg">
  <path d="M 175.97 262.24 L 81.78 262.24 L 81.78 236.61 L 104.78 231.77 L 104.78 79.72 L 81.78 74.74 L 81.78 48.96 L 104.78 48.96 L 175.39 48.96 C 194.43 48.96 211.23 53.43 225.78 62.36 C 240.33 71.3 251.68 83.65 259.83 99.42 C 267.99 115.19 272.07 133.29 272.07 153.7 L 272.07 157.65 C 272.07 177.86 268.04 195.86 259.98 211.63 C 251.93 227.4 240.67 239.78 226.22 248.76 C 211.77 257.75 195.02 262.24 175.97 262.24 Z M 147.55 81.77 L 147.55 229.57 L 173.78 229.57 C 185.59 229.57 195.6 226.47 203.8 220.27 C 212.01 214.07 218.28 205.55 222.63 194.71 C 226.98 183.87 229.15 171.52 229.15 157.65 L 229.15 153.55 C 229.15 139.48 226.98 127.06 222.63 116.27 C 218.28 105.48 212.01 97.03 203.8 90.93 C 195.6 84.82 185.59 81.77 173.78 81.77 L 147.55 81.77 Z" transform="matrix(1, 0, 0, 1, 0, 0)" style="fill: rgb(51, 51, 51); white-space: pre;"/>
  <path d="M 170.12 457.84 L 81.79 457.84 L 81.79 432.21 L 104.5 427.81 L 104.5 274.73 L 81.79 270.34 L 81.79 244.56 L 104.5 244.56 L 147.86 244.56 L 240.73 392.51 L 241.61 392.36 L 241.61 274.73 L 214.36 270.34 L 214.36 244.56 L 279.84 244.56 L 302.69 244.56 L 302.69 270.34 L 279.84 274.73 L 279.84 457.84 L 238.53 457.84 L 143.61 311.36 L 142.73 311.5 L 142.73 427.81 L 170.12 432.21 L 170.12 457.84 Z" transform="matrix(1, 0, 0, 1, 0, 0)" style="fill: rgb(51, 51, 51); white-space: pre;"/>
  <path d="M 384.01 457.83 L 215.26 457.83 L 215.26 432.2 L 237.97 427.8 L 237.97 274.72 L 215.26 270.33 L 215.26 244.55 L 380.79 244.55 L 380.79 302.12 L 347.98 302.12 L 346.07 277.51 L 280.74 277.51 L 280.74 331.12 L 352.96 331.12 L 352.96 364.08 L 280.74 364.08 L 280.74 425.02 L 349.59 425.02 L 351.49 399.53 L 384.01 399.53 L 384.01 457.83 Z" transform="matrix(1, 0, 0, 1, 0, 0)" style="fill: rgb(51, 51, 51); white-space: pre;"/>
</svg>
